X:1
T:Scales, Octatonic vs 'normal'
M:none
L:1/1
Q:1/1=80
%%MIDI program 71 % Clarinet
K:C
"^Octatonic Major" CD_EF_G_A=A=Bc|"^Lower Tetrachord" CD_EF|"^Upper Tetrachord"_G_A=AB|CD_EF|
"^Octatonic Minor" C_D_E=E^FGA_Bc| C_D_E=E|^FGA_B|C_D_E=E|
"^Ionian" 	   CDEFGABc	 | CDEF   |
"^Dorian" 	   CD_EFGA_Bc	 | CD_EF  |
"^Phrygian" 	   C_D_EFG_A_Bc	 | C_D_EF |
"^Lydian" 	   CDE^FGABc	 | CDE^F  |
"^Mixolydian" 	   CDEFGA_Bc	 | CDEF	  |
"^Aeolian" 	   CD_EFG_A_Bc	 | CD_EF  |


